assets/illustrations/default/plataform-1.svg

<svg xmlns="http://www.w3.org/2000/svg" width="1080" height="1081" fill="none"><path fill="#072F73" d="M343.823 688.259c136.584 0 247.307-110.753 247.307-247.373S480.407 193.514 343.823 193.514 96.516 304.266 96.516 440.886 207.24 688.259 343.823 688.259"/><path fill="#1968F0" d="M849.878 431.469V285.311c0-13.233-10.727-24.082-24.076-24.082H439.17c-13.229 0-24.075 10.73-24.075 24.082v16.69h-33.372c-5.244 0-7.747 6.319-4.171 9.895l37.424 37.434v82.02c0 13.233 10.726 24.082 24.074 24.082h386.634c13.468.119 24.194-10.61 24.194-23.963"/><path fill="#35DE90" d="M627.124 345.752h-153.39c-5.244 0-9.535-4.292-9.535-9.537v-16.214c0-5.245 4.291-9.537 9.535-9.537h153.39c5.244 0 9.534 4.292 9.534 9.537v16.214c0 5.245-4.29 9.537-9.534 9.537"/><path fill="url(#a)" d="M711.981 345.752h-45.17c-5.244 0-9.534-4.292-9.534-9.537v-16.214c0-5.245 4.29-9.537 9.534-9.537h45.17c5.244 0 9.535 4.292 9.535 9.537v16.214c0 5.245-4.291 9.537-9.535 9.537"/><path fill="#072F73" d="M774.673 410.129H473.614c-5.244 0-9.535-4.292-9.535-9.537v-16.214c0-5.245 4.291-9.537 9.535-9.537h301.059c5.244 0 9.535 4.292 9.535 9.537v16.214c0 5.245-4.291 9.537-9.535 9.537"/><path fill="#F5F5F5" d="m368.732 488.573-3.337-17.406c-1.788-9.298-10.011-16.094-19.545-16.094H153.009c-10.965 0-19.903 8.942-19.903 19.91v458.623c0 10.968 8.938 19.908 19.903 19.908h730.479c10.965 0 19.904-8.94 19.904-19.908V524.457c0-10.968-8.939-19.909-19.904-19.909H388.279c-9.535.119-17.64-6.557-19.547-15.975"/><path fill="url(#b)" d="m368.732 488.095-3.337-17.286c-1.788-9.299-10.011-16.094-19.545-16.094H153.009c-10.965 0-19.903 8.941-19.903 19.909v458.623c0 10.968 8.938 19.909 19.903 19.909h730.479c10.965 0 19.904-8.941 19.904-19.909V524.099c0-10.968-8.939-19.91-19.904-19.91H388.279c-9.535 0-17.64-6.676-19.547-16.094"/><path fill="url(#c)" d="m369.091 487.976-3.338-17.286c-1.788-9.299-10.011-16.094-19.545-16.094H153.487c-10.965 0-19.904 8.941-19.904 19.909v458.623c0 10.967 8.939 19.909 19.904 19.909h730.479c10.965 0 19.903-8.942 19.903-19.909V523.979c0-10.967-8.938-19.909-19.903-19.909H388.757c-9.654 0-17.759-6.676-19.666-16.094"/><path fill="#0096FA" d="M416.644 580.846c12.901 0 23.36-10.461 23.36-23.366s-10.459-23.367-23.36-23.367-23.36 10.462-23.36 23.367 10.458 23.366 23.36 23.366"/><path fill="#0C4EC0" d="M416.643 558.672c4.608 0 8.343-3.416 8.343-7.63s-3.735-7.63-8.343-7.63-8.343 3.416-8.343 7.63 3.735 7.63 8.343 7.63M416.643 580.846c6.555 0 12.396-2.742 16.567-7.153-2.384-6.796-8.939-11.683-16.567-11.683s-14.182 4.887-16.566 11.683c4.171 4.411 10.011 7.153 16.566 7.153"/><path fill="#A3A3A3" d="M527.366 570.474h-70.318c-3.338 0-5.96-2.622-5.96-5.96v-14.187c0-3.338 2.622-5.961 5.96-5.961h70.318c3.337 0 5.959 2.623 5.959 5.961v14.187c0 3.338-2.622 5.96-5.959 5.96"/><path fill="#0096FA" d="M204.496 695.173c12.902 0 23.361-10.461 23.361-23.366s-10.459-23.367-23.361-23.367c-12.901 0-23.359 10.462-23.359 23.367s10.458 23.366 23.359 23.366"/><path fill="#0C4EC0" d="M204.495 672.999c4.608 0 8.343-3.416 8.343-7.629 0-4.214-3.735-7.631-8.343-7.631-4.607 0-8.342 3.417-8.342 7.631 0 4.213 3.735 7.629 8.342 7.629M204.495 695.174c6.556 0 12.396-2.742 16.567-7.153-2.383-6.795-8.939-11.683-16.567-11.683-7.627 0-14.182 4.888-16.565 11.683 4.052 4.411 10.01 7.153 16.565 7.153"/><path fill="#666" d="M315.219 684.801H244.9c-3.337 0-5.959-2.623-5.959-5.961v-14.187c0-3.338 2.622-5.961 5.959-5.961h70.319c3.337 0 5.959 2.623 5.959 5.961v14.187c0 3.338-2.622 5.961-5.959 5.961"/><path fill="#0096FA" d="M204.496 798.892c12.902 0 23.361-10.462 23.361-23.366s-10.459-23.367-23.361-23.367c-12.901 0-23.359 10.462-23.359 23.367 0 12.904 10.458 23.366 23.359 23.366"/><path fill="#0C4EC0" d="M204.496 776.837c4.607 0 8.342-3.416 8.342-7.63s-3.735-7.63-8.342-7.63-8.343 3.416-8.343 7.63 3.735 7.63 8.343 7.63M204.496 799.011c6.555 0 12.395-2.742 16.567-7.153-2.384-6.796-8.94-11.683-16.567-11.683s-14.183 4.887-16.566 11.683c4.052 4.411 10.01 7.153 16.566 7.153"/><path fill="#A3A3A3" d="M315.219 788.639H244.9c-3.337 0-5.959-2.622-5.959-5.96v-14.187c0-3.338 2.622-5.961 5.959-5.961h70.319c3.337 0 5.959 2.623 5.959 5.961v14.187c0 3.218-2.622 5.96-5.959 5.96"/><path fill="#0096FA" d="M204.496 902.727c12.902 0 23.361-10.461 23.361-23.365 0-12.905-10.459-23.367-23.361-23.367-12.901 0-23.359 10.462-23.359 23.367 0 12.904 10.458 23.365 23.359 23.365"/><path fill="#0C4EC0" d="M204.496 880.555c4.607 0 8.342-3.417 8.342-7.63 0-4.214-3.735-7.63-8.342-7.63s-8.343 3.416-8.343 7.63c0 4.213 3.735 7.63 8.343 7.63M204.496 902.729c6.555 0 12.395-2.742 16.567-7.153-2.384-6.795-8.94-11.682-16.567-11.682s-14.183 4.887-16.566 11.682c4.052 4.411 10.01 7.153 16.566 7.153"/><path fill="#E0E0E0" d="M315.219 892.355H244.9c-3.337 0-5.959-2.623-5.959-5.961v-14.186c0-3.338 2.622-5.961 5.959-5.961h70.319c3.337 0 5.959 2.623 5.959 5.961v14.186c0 3.338-2.622 5.961-5.959 5.961"/><path fill="#35DE90" d="M801.49 547.942c1.311 0 2.502 1.073 2.502 2.503v7.034c0 1.312-1.072 2.503-2.502 2.503h-21.573c-1.311 0-2.502-1.072-2.502-2.503v-7.034c0-1.311 1.072-2.503 2.502-2.503zm0-3.458h-21.573c-3.337 0-5.959 2.623-5.959 5.961v7.034c0 3.338 2.622 5.961 5.959 5.961h21.573c3.337 0 5.959-2.623 5.959-5.961v-7.034c0-3.338-2.622-5.961-5.959-5.961M866.683 563.441h-45.648c-3.337 0-5.959-2.623-5.959-5.961v-7.034c0-3.338 2.622-5.961 5.959-5.961h45.648c3.337 0 5.959 2.623 5.959 5.961v7.034c0 3.338-2.622 5.961-5.959 5.961"/><path fill="#C5D9FB" d="M590.652 657.025H404.964c-3.337 0-5.959-2.622-5.959-5.96v-34.573c0-3.338 2.622-5.961 5.959-5.961h185.808c3.337 0 5.959 2.623 5.959 5.961v34.573c-.119 3.218-2.742 5.96-6.079 5.96"/><path fill="#35DE90" d="M302.704 583.707H199.61c-3.337 0-5.959-2.623-5.959-5.961v-34.572c0-3.338 2.622-5.961 5.959-5.961h103.094c3.337 0 5.959 2.623 5.959 5.961v34.572c0 3.338-2.741 5.961-5.959 5.961"/><path fill="#C5D9FB" d="M549.654 832.63H406.037c-3.337 0-5.959-2.623-5.959-5.961v-34.572c0-3.339 2.622-5.961 5.959-5.961h143.617c3.337 0 5.959 2.622 5.959 5.961v34.572c0 3.338-2.741 5.961-5.959 5.961"/><path fill="#0096FA" d="M666.215 762.292h201.064c3.337 0 5.959-2.622 5.959-5.961v-85c0-3.338-2.622-5.961-5.959-5.961H666.215c-3.337 0-5.959 2.623-5.959 5.961v85c0 3.339 2.622 5.961 5.959 5.961"/><path fill="#E0E0E0" d="M406.037 922.16h463.626c3.337 0 5.959-2.622 5.959-5.96v-56.628c0-3.338-2.622-5.961-5.959-5.961H406.037c-3.337 0-5.959 2.623-5.959 5.961V916.2c0 3.218 2.622 5.96 5.959 5.96"/><path fill="#E0E0E0" fill-rule="evenodd" d="M872.642 597.368H393.164v-3.478h479.478zM343.823 621.688H158.372v-3.479h185.451zM343.823 725.405H158.372v-3.478h185.451zM343.823 829.243H158.372v-3.478h185.451zM367.113 931.221V526.245h3.477v404.976z" clip-rule="evenodd"/><path fill="#072F73" d="M1036.76 835.966H797.199c-12.872 0-23.241-10.371-23.241-23.247v-439.31c0-12.875 10.369-23.247 23.241-23.247h239.561c12.87 0 23.24 10.372 23.24 23.247v439.31c0 12.876-10.37 23.247-23.24 23.247"/><path fill="url(#d)" d="M1036.76 811.646H797.199c-12.872 0-23.241-10.372-23.241-23.247v-439.31c0-12.875 10.369-23.247 23.241-23.247h239.561c12.87 0 23.24 10.372 23.24 23.247v439.31c0 12.756-10.37 23.247-23.24 23.247"/><path fill="#35DE90" d="M1060 391.053v-41.964c0-12.875-10.37-23.247-23.24-23.247H797.199c-12.872 0-23.241 10.372-23.241 23.247v41.964z"/><path fill="#072F73" fill-rule="evenodd" d="M948.087 360.295a6.556 6.556 0 0 1 6.555-6.557h4.647a6.556 6.556 0 0 1 6.555 6.557 6.556 6.556 0 0 1-6.555 6.557h-4.647a6.556 6.556 0 0 1-6.555-6.557M868.114 360.295a6.556 6.556 0 0 1 6.555-6.557h60.069a6.556 6.556 0 0 1 6.555 6.557 6.556 6.556 0 0 1-6.555 6.557h-60.069a6.556 6.556 0 0 1-6.555-6.557" clip-rule="evenodd"/><path fill="#0096FA" d="M996.118 563.44c0 22.651-9.535 43.037-24.671 57.462-14.183 13.471-33.372 21.697-54.348 21.697-21.095 0-40.285-8.226-54.349-21.697-15.255-14.425-24.67-34.811-24.67-57.462 0-43.752 35.397-79.16 79.138-79.16 43.74 0 78.9 35.527 78.9 79.16"/><path fill="#072F73" d="M916.981 687.66c5.529 0 10.012-4.484 10.012-10.014 0-5.531-4.483-10.014-10.012-10.014s-10.011 4.483-10.011 10.014 4.482 10.014 10.011 10.014M953.809 687.66c5.53 0 10.012-4.484 10.012-10.014 0-5.531-4.482-10.014-10.012-10.014-5.529 0-10.012 4.483-10.012 10.014s4.483 10.014 10.012 10.014M880.273 687.66c5.529 0 10.012-4.484 10.012-10.014 0-5.531-4.483-10.014-10.012-10.014s-10.011 4.483-10.011 10.014 4.481 10.014 10.011 10.014"/><path fill="#0C4EC0" d="M916.979 570.83c12.836 0 23.241-10.408 23.241-23.247s-10.405-23.247-23.241-23.247-23.241 10.408-23.241 23.247 10.406 23.247 23.241 23.247M971.328 620.901c-14.183 13.471-33.372 21.697-54.349 21.697-21.095 0-40.283-8.226-54.347-21.697 7.151-23.247 28.842-40.175 54.347-40.175 25.625.119 47.198 16.928 54.349 40.175"/><path fill="#0096FA" d="M96.516 713.534c42.259 0 76.517-34.267 76.517-76.537s-34.258-76.536-76.517-76.536S20 594.727 20 636.997s34.258 76.537 76.516 76.537"/><defs><linearGradient id="a" x1="657.238" x2="721.511" y1="328.11" y2="328.11" gradientUnits="userSpaceOnUse"><stop stop-color="#fff"/><stop offset=".952" stop-color="#C5D9FB"/></linearGradient><linearGradient id="b" x1="909.229" x2="-54.36" y1="471.015" y2="1044.77" gradientUnits="userSpaceOnUse"><stop stop-color="#fff"/><stop offset=".99" stop-color="#E0E0E0"/></linearGradient><linearGradient id="c" x1="250.218" x2="1003.72" y1="778.027" y2="569.765" gradientUnits="userSpaceOnUse"><stop offset=".253" stop-color="#03F" stop-opacity="0"/><stop offset=".441" stop-color="#0033FC" stop-opacity=".252"/><stop offset=".565" stop-color="#0133F3" stop-opacity=".418"/><stop offset=".671" stop-color="#0132E4" stop-opacity=".559"/><stop offset=".766" stop-color="#0232CF" stop-opacity=".687"/><stop offset=".854" stop-color="#0431B4" stop-opacity=".805"/><stop offset=".936" stop-color="#053092" stop-opacity=".915"/><stop offset="1" stop-color="#072F73"/></linearGradient><linearGradient id="d" x1="720.507" x2="1067.57" y1="894.132" y2="319.645" gradientUnits="userSpaceOnUse"><stop stop-color="#fff"/><stop offset=".952" stop-color="#C5D9FB"/></linearGradient></defs></svg>

<svg width="1080" height="1081" viewBox="0 0 1080 1081" fill="none" xmlns="http://www.w3.org/2000/svg">
<path d="M343.823 688.259C480.407 688.259 591.13 577.506 591.13 440.886C591.13 304.266 480.407 193.514 343.823 193.514C207.239 193.514 96.5164 304.266 96.5164 440.886C96.5164 577.506 207.239 688.259 343.823 688.259Z" fill="#072F73"/>
<path d="M849.878 431.469V285.311C849.878 272.078 839.151 261.229 825.802 261.229H439.17C425.941 261.229 415.095 271.959 415.095 285.311V302.001H381.723C376.479 302.001 373.976 308.32 377.552 311.896L414.976 349.33V431.35C414.976 444.583 425.702 455.432 439.05 455.432H825.684C839.152 455.551 849.878 444.821 849.878 431.469Z" fill="#1968F0"/>
<path d="M627.124 345.752H473.734C468.49 345.752 464.199 341.46 464.199 336.215V320.001C464.199 314.756 468.49 310.464 473.734 310.464H627.124C632.368 310.464 636.658 314.756 636.658 320.001V336.215C636.658 341.46 632.368 345.752 627.124 345.752Z" fill="#35DE90"/>
<path d="M711.981 345.752H666.811C661.567 345.752 657.277 341.46 657.277 336.215V320.001C657.277 314.756 661.567 310.464 666.811 310.464H711.981C717.225 310.464 721.516 314.756 721.516 320.001V336.215C721.516 341.46 717.225 345.752 711.981 345.752Z" fill="url(#paint0_linear_18735_3258)"/>
<path d="M774.673 410.129H473.614C468.37 410.129 464.079 405.837 464.079 400.592V384.378C464.079 379.133 468.37 374.841 473.614 374.841H774.673C779.917 374.841 784.208 379.133 784.208 384.378V400.592C784.208 405.837 779.917 410.129 774.673 410.129Z" fill="#072F73"/>
<path d="M368.732 488.573L365.395 471.167C363.607 461.869 355.384 455.073 345.85 455.073H153.009C142.044 455.073 133.106 464.015 133.106 474.983V933.606C133.106 944.574 142.044 953.514 153.009 953.514H883.488C894.453 953.514 903.392 944.574 903.392 933.606V524.457C903.392 513.489 894.453 504.548 883.488 504.548H388.279C378.744 504.667 370.639 497.991 368.732 488.573Z" fill="#F5F5F5"/>
<path d="M368.732 488.095L365.395 470.809C363.607 461.51 355.384 454.715 345.85 454.715H153.009C142.044 454.715 133.106 463.656 133.106 474.624V933.247C133.106 944.215 142.044 953.156 153.009 953.156H883.488C894.453 953.156 903.392 944.215 903.392 933.247V524.099C903.392 513.131 894.453 504.189 883.488 504.189H388.279C378.744 504.189 370.639 497.513 368.732 488.095Z" fill="url(#paint1_linear_18735_3258)"/>
<path d="M369.091 487.976L365.753 470.69C363.965 461.391 355.742 454.596 346.208 454.596H153.487C142.522 454.596 133.583 463.537 133.583 474.505V933.128C133.583 944.095 142.522 953.037 153.487 953.037H883.966C894.931 953.037 903.869 944.095 903.869 933.128V523.98C903.869 513.012 894.931 504.07 883.966 504.07H388.757C379.103 504.07 370.998 497.394 369.091 487.976Z" fill="url(#paint2_linear_18735_3258)"/>
<path d="M416.644 580.846C429.545 580.846 440.004 570.385 440.004 557.48C440.004 544.575 429.545 534.113 416.644 534.113C403.742 534.113 393.284 544.575 393.284 557.48C393.284 570.385 403.742 580.846 416.644 580.846Z" fill="#0096FA"/>
<path d="M416.643 558.672C421.251 558.672 424.986 555.256 424.986 551.042C424.986 546.828 421.251 543.412 416.643 543.412C412.035 543.412 408.3 546.828 408.3 551.042C408.3 555.256 412.035 558.672 416.643 558.672Z" fill="#0C4EC0"/>
<path d="M416.643 580.846C423.198 580.846 429.039 578.104 433.21 573.693C430.826 566.897 424.271 562.01 416.643 562.01C409.015 562.01 402.461 566.897 400.077 573.693C404.248 578.104 410.088 580.846 416.643 580.846Z" fill="#0C4EC0"/>
<path d="M527.366 570.474H457.048C453.71 570.474 451.088 567.852 451.088 564.514V550.327C451.088 546.989 453.71 544.366 457.048 544.366H527.366C530.703 544.366 533.325 546.989 533.325 550.327V564.514C533.325 567.852 530.703 570.474 527.366 570.474Z" fill="#A3A3A3"/>
<path d="M204.496 695.173C217.398 695.173 227.857 684.712 227.857 671.807C227.857 658.902 217.398 648.44 204.496 648.44C191.595 648.44 181.137 658.902 181.137 671.807C181.137 684.712 191.595 695.173 204.496 695.173Z" fill="#0096FA"/>
<path d="M204.495 672.999C209.103 672.999 212.838 669.583 212.838 665.37C212.838 661.156 209.103 657.739 204.495 657.739C199.888 657.739 196.153 661.156 196.153 665.37C196.153 669.583 199.888 672.999 204.495 672.999Z" fill="#0C4EC0"/>
<path d="M204.495 695.174C211.051 695.174 216.891 692.432 221.062 688.021C218.679 681.226 212.123 676.338 204.495 676.338C196.868 676.338 190.313 681.226 187.93 688.021C191.982 692.432 197.94 695.174 204.495 695.174Z" fill="#0C4EC0"/>
<path d="M315.219 684.801H244.9C241.563 684.801 238.941 682.178 238.941 678.84V664.653C238.941 661.315 241.563 658.692 244.9 658.692H315.219C318.556 658.692 321.178 661.315 321.178 664.653V678.84C321.178 682.178 318.556 684.801 315.219 684.801Z" fill="#666666"/>
<path d="M204.496 798.892C217.398 798.892 227.857 788.43 227.857 775.526C227.857 762.621 217.398 752.159 204.496 752.159C191.595 752.159 181.137 762.621 181.137 775.526C181.137 788.43 191.595 798.892 204.496 798.892Z" fill="#0096FA"/>
<path d="M204.496 776.837C209.103 776.837 212.838 773.421 212.838 769.207C212.838 764.993 209.103 761.577 204.496 761.577C199.888 761.577 196.153 764.993 196.153 769.207C196.153 773.421 199.888 776.837 204.496 776.837Z" fill="#0C4EC0"/>
<path d="M204.496 799.011C211.051 799.011 216.891 796.269 221.063 791.858C218.679 785.062 212.123 780.175 204.496 780.175C196.868 780.175 190.313 785.062 187.93 791.858C191.982 796.269 197.94 799.011 204.496 799.011Z" fill="#0C4EC0"/>
<path d="M315.219 788.639H244.9C241.563 788.639 238.941 786.017 238.941 782.679V768.492C238.941 765.154 241.563 762.531 244.9 762.531H315.219C318.556 762.531 321.178 765.154 321.178 768.492V782.679C321.178 785.897 318.556 788.639 315.219 788.639Z" fill="#A3A3A3"/>
<path d="M204.496 902.727C217.398 902.727 227.857 892.266 227.857 879.362C227.857 866.457 217.398 855.995 204.496 855.995C191.595 855.995 181.137 866.457 181.137 879.362C181.137 892.266 191.595 902.727 204.496 902.727Z" fill="#0096FA"/>
<path d="M204.496 880.555C209.103 880.555 212.838 877.138 212.838 872.925C212.838 868.711 209.103 865.295 204.496 865.295C199.888 865.295 196.153 868.711 196.153 872.925C196.153 877.138 199.888 880.555 204.496 880.555Z" fill="#0C4EC0"/>
<path d="M204.496 902.729C211.051 902.729 216.891 899.987 221.063 895.576C218.679 888.781 212.123 883.894 204.496 883.894C196.868 883.894 190.313 888.781 187.93 895.576C191.982 899.987 197.94 902.729 204.496 902.729Z" fill="#0C4EC0"/>
<path d="M315.219 892.355H244.9C241.563 892.355 238.941 889.732 238.941 886.394V872.208C238.941 868.87 241.563 866.247 244.9 866.247H315.219C318.556 866.247 321.178 868.87 321.178 872.208V886.394C321.178 889.732 318.556 892.355 315.219 892.355Z" fill="#E0E0E0"/>
<path d="M801.49 547.942C802.801 547.942 803.992 549.015 803.992 550.445V557.479C803.992 558.791 802.92 559.982 801.49 559.982H779.917C778.606 559.982 777.415 558.91 777.415 557.479V550.445C777.415 549.134 778.487 547.942 779.917 547.942H801.49ZM801.49 544.484H779.917C776.58 544.484 773.958 547.107 773.958 550.445V557.479C773.958 560.817 776.58 563.44 779.917 563.44H801.49C804.827 563.44 807.449 560.817 807.449 557.479V550.445C807.449 547.107 804.827 544.484 801.49 544.484Z" fill="#35DE90"/>
<path d="M866.683 563.441H821.035C817.698 563.441 815.076 560.818 815.076 557.48V550.446C815.076 547.108 817.698 544.485 821.035 544.485H866.683C870.02 544.485 872.642 547.108 872.642 550.446V557.48C872.642 560.818 870.02 563.441 866.683 563.441Z" fill="#35DE90"/>
<path d="M590.652 657.025H404.964C401.627 657.025 399.005 654.403 399.005 651.065V616.492C399.005 613.154 401.627 610.531 404.964 610.531H590.772C594.109 610.531 596.731 613.154 596.731 616.492V651.065C596.612 654.283 593.989 657.025 590.652 657.025Z" fill="#C5D9FB"/>
<path d="M302.704 583.707H199.61C196.273 583.707 193.651 581.084 193.651 577.746V543.174C193.651 539.836 196.273 537.213 199.61 537.213H302.704C306.041 537.213 308.663 539.836 308.663 543.174V577.746C308.663 581.084 305.922 583.707 302.704 583.707Z" fill="#35DE90"/>
<path d="M549.654 832.63H406.037C402.7 832.63 400.078 830.007 400.078 826.669V792.097C400.078 788.758 402.7 786.136 406.037 786.136H549.654C552.991 786.136 555.613 788.758 555.613 792.097V826.669C555.613 830.007 552.872 832.63 549.654 832.63Z" fill="#C5D9FB"/>
<path d="M666.215 762.292H867.279C870.616 762.292 873.238 759.67 873.238 756.331V671.331C873.238 667.993 870.616 665.37 867.279 665.37H666.215C662.878 665.37 660.256 667.993 660.256 671.331V756.331C660.256 759.67 662.878 762.292 666.215 762.292Z" fill="#0096FA"/>
<path d="M406.037 922.16H869.663C873 922.16 875.622 919.538 875.622 916.2V859.572C875.622 856.234 873 853.611 869.663 853.611H406.037C402.7 853.611 400.078 856.234 400.078 859.572V916.2C400.078 919.418 402.7 922.16 406.037 922.16Z" fill="#E0E0E0"/>
<path fill-rule="evenodd" clip-rule="evenodd" d="M872.642 597.368H393.164V593.89H872.642V597.368Z" fill="#E0E0E0"/>
<path fill-rule="evenodd" clip-rule="evenodd" d="M343.823 621.688H158.372V618.209H343.823V621.688Z" fill="#E0E0E0"/>
<path fill-rule="evenodd" clip-rule="evenodd" d="M343.823 725.405H158.372V721.927H343.823V725.405Z" fill="#E0E0E0"/>
<path fill-rule="evenodd" clip-rule="evenodd" d="M343.823 829.243H158.372V825.765H343.823V829.243Z" fill="#E0E0E0"/>
<path fill-rule="evenodd" clip-rule="evenodd" d="M367.113 931.221V526.245H370.59V931.221H367.113Z" fill="#E0E0E0"/>
<path d="M1036.76 835.966H797.199C784.327 835.966 773.958 825.595 773.958 812.719V373.409C773.958 360.534 784.327 350.162 797.199 350.162H1036.76C1049.63 350.162 1060 360.534 1060 373.409V812.719C1060 825.595 1049.63 835.966 1036.76 835.966Z" fill="#072F73"/>
<path d="M1036.76 811.646H797.199C784.327 811.646 773.958 801.274 773.958 788.399V349.089C773.958 336.214 784.327 325.842 797.199 325.842H1036.76C1049.63 325.842 1060 336.214 1060 349.089V788.399C1060 801.155 1049.63 811.646 1036.76 811.646Z" fill="url(#paint3_linear_18735_3258)"/>
<path d="M1060 391.053V349.089C1060 336.214 1049.63 325.842 1036.76 325.842H797.199C784.327 325.842 773.958 336.214 773.958 349.089V391.053H1060Z" fill="#35DE90"/>
<path fill-rule="evenodd" clip-rule="evenodd" d="M948.087 360.295C948.087 356.674 951.021 353.738 954.642 353.738H959.289C962.91 353.738 965.844 356.674 965.844 360.295C965.844 363.916 962.91 366.852 959.289 366.852H954.642C951.021 366.852 948.087 363.916 948.087 360.295Z" fill="#072F73"/>
<path fill-rule="evenodd" clip-rule="evenodd" d="M868.114 360.295C868.114 356.674 871.049 353.738 874.669 353.738H934.738C938.358 353.738 941.293 356.674 941.293 360.295C941.293 363.916 938.358 366.852 934.738 366.852H874.669C871.049 366.852 868.114 363.916 868.114 360.295Z" fill="#072F73"/>
<path d="M996.118 563.44C996.118 586.091 986.583 606.477 971.447 620.902C957.264 634.373 938.075 642.599 917.099 642.599C896.004 642.599 876.814 634.373 862.75 620.902C847.495 606.477 838.08 586.091 838.08 563.44C838.08 519.688 873.477 484.28 917.218 484.28C960.958 484.28 996.118 519.807 996.118 563.44Z" fill="#0096FA"/>
<path d="M916.981 687.66C922.51 687.66 926.993 683.176 926.993 677.646C926.993 672.115 922.51 667.632 916.981 667.632C911.452 667.632 906.97 672.115 906.97 677.646C906.97 683.176 911.452 687.66 916.981 687.66Z" fill="#072F73"/>
<path d="M953.809 687.66C959.339 687.66 963.821 683.176 963.821 677.646C963.821 672.115 959.339 667.632 953.809 667.632C948.28 667.632 943.797 672.115 943.797 677.646C943.797 683.176 948.28 687.66 953.809 687.66Z" fill="#072F73"/>
<path d="M880.273 687.66C885.802 687.66 890.285 683.176 890.285 677.646C890.285 672.115 885.802 667.632 880.273 667.632C874.743 667.632 870.262 672.115 870.262 677.646C870.262 683.176 874.743 687.66 880.273 687.66Z" fill="#072F73"/>
<path d="M916.979 570.83C929.815 570.83 940.22 560.422 940.22 547.583C940.22 534.744 929.815 524.336 916.979 524.336C904.144 524.336 893.738 534.744 893.738 547.583C893.738 560.422 904.144 570.83 916.979 570.83Z" fill="#0C4EC0"/>
<path d="M971.328 620.901C957.145 634.372 937.956 642.598 916.979 642.598C895.884 642.598 876.696 634.372 862.632 620.901C869.783 597.654 891.474 580.726 916.979 580.726C942.604 580.845 964.177 597.654 971.328 620.901Z" fill="#0C4EC0"/>
<path d="M96.5164 713.534C138.775 713.534 173.033 679.267 173.033 636.997C173.033 594.727 138.775 560.461 96.5164 560.461C54.2577 560.461 20 594.727 20 636.997C20 679.267 54.2577 713.534 96.5164 713.534Z" fill="#0096FA"/>
<defs>
<linearGradient id="paint0_linear_18735_3258" x1="657.238" y1="328.11" x2="721.511" y2="328.11" gradientUnits="userSpaceOnUse">
<stop stop-color="white"/>
<stop offset="0.9515" stop-color="#C5D9FB"/>
</linearGradient>
<linearGradient id="paint1_linear_18735_3258" x1="909.229" y1="471.015" x2="-54.3598" y2="1044.77" gradientUnits="userSpaceOnUse">
<stop stop-color="white"/>
<stop offset="0.9901" stop-color="#E0E0E0"/>
</linearGradient>
<linearGradient id="paint2_linear_18735_3258" x1="250.218" y1="778.027" x2="1003.72" y2="569.765" gradientUnits="userSpaceOnUse">
<stop offset="0.2531" stop-color="#0033FF" stop-opacity="0"/>
<stop offset="0.441" stop-color="#0033FC" stop-opacity="0.2515"/>
<stop offset="0.565" stop-color="#0133F3" stop-opacity="0.4176"/>
<stop offset="0.6706" stop-color="#0132E4" stop-opacity="0.559"/>
<stop offset="0.7659" stop-color="#0232CF" stop-opacity="0.6866"/>
<stop offset="0.8542" stop-color="#0431B4" stop-opacity="0.8048"/>
<stop offset="0.9363" stop-color="#053092" stop-opacity="0.9147"/>
<stop offset="1" stop-color="#072F73"/>
</linearGradient>
<linearGradient id="paint3_linear_18735_3258" x1="720.507" y1="894.132" x2="1067.57" y2="319.645" gradientUnits="userSpaceOnUse">
<stop stop-color="white"/>
<stop offset="0.9515" stop-color="#C5D9FB"/>
</linearGradient>
</defs>
</svg>
